!!!COA:	Josquin des Prez
!!!CDT:	~1450-1521/08/27
!!!OTL: Sanctus  D'ung aultre amer / Tu lumen
!!!AGN:	Mass section; Sanctus
!!!SCT:	NJE 13.10
!!!SCA:	New Josquin Edition 13.10
!!!voices: 4
**kern	**kern	**kern	**kern
*staff4	*staff3	*staff2	*staff1
*Ivox	*Ivox	*Ivox	*Ivox
*I"Bassus	*I"Tenor	*I"Altus	*I"Superius
*I'B	*I'T	*I'A	*I'S
*clefF4	*clefGv2	*clefGv2	*clefG2
*k[b-]	*k[b-]	*k[b-]	*k[b-]
*M2/1	*M2/1	*M2/1	*M2/1
*met(C|)	*met(C|)	*met(C|)	*met(C|)
=1-	=1-	=1-	=1-
!	!	!	!LO:TX:Z=10:t=Superius by Ockeghem (through m. 76)
0r	0r	0g	0g
=2	=2	=2	=2
0r	0r	1f	1a
.	.	[1g	1g
=3	=3	=3	=3
0G	0B-	2g\]	1.dd
.	.	2f\	.
.	.	2d\	.
.	.	2e\	4cc\
.	.	.	4b-\
=4	=4	=4	=4
1.F	0c	[0f	1a
.	.	.	1a
2E\	.	.	.
=5	=5	=5	=5
2D\	0d	0f]	1a
2C/	.	.	.
[1BB-	.	.	[1dd
=6	=6	=6	=6
1BB-]	0r	1B-	1dd]
1F	.	1A	1cc
=7	=7	=7	=7
0G	0d	1B-	1.b-
.	.	1G	.
.	.	.	4a/
.	.	.	4g/
=8	=8	=8	=8
[0D	[0d	0A	0f
=9	=9	=9	=9
0D]	0d]	1r	1r
.	.	1d	1f
=10	=10	=10	=10
0r	0r	2e\	1g
.	.	2f\	.
.	.	[1g	1b-
=11	=11	=11	=11
0r	0r	2g\]	0a
.	.	4f#i\	.
.	.	4e\	.
.	.	1f#i	.
=12	=12	=12	=12
0G	0B-	1g	1.g
.	.	[1G	.
.	.	.	2f/
=13	=13	=13	=13
1C	1c	2G/]	1e
.	.	2A/	.
1G	1d	2B-\	[1d
.	.	2G/	.
=14	=14	=14	=14
2F\	2d\	2A/	1d]
1G	2d\	2B-\	.
.	[1d	1G	1d
4F\	.	.	.
4E\	.	.	.
=15	=15	=15	=15
2F\	1d]	0r	1d
2G\	.	.	.
1C	1c	.	[1e
=16	=16	=16	=16
0r	1d	0r	2e/]
.	.	.	2d/
.	1c	.	1e
=17	=17	=17	=17
0r	0d	0r	2f/
.	.	.	2d/
.	.	.	[1d
=18	=18	=18	=18
0r	0e	0r	1d]
.	.	.	1c#i
=19	=19	=19	=19
0G	0d	1.B-	[0d
.	.	4A/	.
.	.	4G/	.
=20	=20	=20	=20
1F	1r	1A	0d]
1G	1B-	2G/	.
.	.	[2g\	.
=21	=21	=21	=21
2E\	1c	2g\]	0r
2.F\	.	1a	.
.	1d	.	.
4E\	.	.	.
4D\	.	[2f\	.
4C/	.	.	.
=22	=22	=22	=22
1BB-	0d	2f\]	0b-
.	.	2g\	.
[1B-	.	2f\	.
.	.	2g\	.
=23	=23	=23	=23
2B-\]	0r	2f\	1cc
4A\	.	2g\	.
4G\	.	.	.
1A	.	1e	1cc
=24	=24	=24	=24
0B-	1d	2.d\	0dd
.	.	4e\	.
.	2d\	2f\	.
.	2d\	2g\	.
=25	=25	=25	=25
1r	1d	2f\	1dd
.	.	2g\	.
[1B-	1d	2d\	1dd
.	.	[2f\	.
=26	=26	=26	=26
2B-\]	0r	2f\]	2cc\
4A\	.	2g\	1cc
4G\	.	.	.
1A	.	1e	.
.	.	.	4b-\
.	.	.	4a/
=27	=27	=27	=27
1B-	0r	1.d	1g
[1BB-	.	.	[1f
.	.	2e\	.
=28	=28	=28	=28
1BB-]	0r	2f\	2f/]
.	.	2g\	2e/
1AA	.	1e	1c
=29	=29	=29	=29
1BB-	1r	1.d	1.d
[1B-	[1d	.	.
.	.	2e\	2B-/
=30	=30	=30	=30
1B-]	1d]	2f\	1B-
.	.	2g\	.
1A	1c	2e\	1c
.	.	2a\	.
=31	=31	=31	=31
1B-	1d	2g\	1B-
.	.	1f	.
1G	1B-	.	[1b-
.	.	2e\	.
=32	=32	=32	=32
0F	0c	[0fl	1b-]
.	.	.	1a
=33	=33	=33	=33
0BB-l	0B-l	0f]	0b-l
!!LO:LB:i:g=z
=34||	=34||	=34||	=34||
*M3/1	*M3/1	*M3/1	*M3/1
*met(O)	*met(O)	*met(O)	*met(O)
!!section: Osanna
!!!OMD: Osanna
0.r	0.r	0g	0.b-
.	.	2d\	.
.	.	2e\	.
=35	=35	=35	=35
0.r	0.r	2.f\	1a
.	.	4e\	.
.	.	2f\	1a
.	.	2.c\	.
.	.	.	2g/
.	.	4d\	.
.	.	2e\	[2cc\
=36	=36	=36	=36
0.r	0.r	2f\	2cc\]
.	.	2g\	2b-\
.	.	2f\	2a/
.	.	1g	2g/
.	.	.	1a
.	.	2f#i\	.
=37	=37	=37	=37
0.G	0.B-	0g	1b-
.	.	.	1g
.	.	2r	1dd
.	.	2g\	.
=38	=38	=38	=38
2A\	0.c	2e\	2cc\
1F	.	1a	1cc
2G\	.	2g\	2b-\
1A	.	2e\	2.a/
.	.	2f\	.
.	.	.	4g/
=39	=39	=39	=39
1.G	0.d	2.g\	1b-
.	.	4f\	.
.	.	4d\	2g/
.	.	4e\	.
2F\	.	2.f\	2.a/
4D\	.	.	.
4E\	.	4e\	4g/
2F\	.	4d\	4f/
.	.	4c\	4e/
=40	=40	=40	=40
2BB-/	1r	2d\	2f/
2C/	.	2c\	2e/
2D\	1r	2B-\	2d/
2E-i\	.	2G/	1g
1D	1d	1A	.
.	.	.	2f#i/
=41	=41	=41	=41
2.E-i\	2c\	[0.Gl	[0.gl
.	2B-\	.	.
4D\	.	.	.
2C/	2c\	.	.
2BB-/	2d\	.	.
1C	1e-i	.	.
=42	=42	=42	=42
*^	*	*	*
0.GGl\	0.Gl/	0.dl	0.G]	0.g]
*v	*v	*	*	*
=43||	=43||	=43||	=43||
*M3/1	*M3/1	*M3/1	*M3/1
*met(O/3)	*met(O/3)	*met(O/3)	*met(O/3)
0.r	0.r	1g	0g
.	.	1e	.
.	.	1f	1a
=44	=44	=44	=44
0.r	0.r	1.g	1g
.	.	.	1.dd
.	.	2f\	.
.	.	2d\	.
.	.	2e\	4cc\
.	.	.	4b-\
=45	=45	=45	=45
0.r	0.r	1.f	1a
.	.	.	1a
.	.	2e\	.
.	.	1c	1a
=46	=46	=46	=46
0G	0.B-	1B-	0.dd
.	.	0G	.
1B-	.	.	.
=47	=47	=47	=47
1A	1c	1A	1cc
1.G	0d	1B-	1.b-
.	.	1G	.
2F\	.	.	4a/
.	.	.	4g/
=48	=48	=48	=48
0D	0.d	0A	0.f
1r	.	1B-	.
=49	=49	=49	=49
0D	1d	0A	1r
.	0d	.	1f
[1G	.	1B-	1g
=50	=50	=50	=50
1G]	0.d	1G	1b-
1F	.	1A	0a
1D	.	1F	.
=51	=51	=51	=51
1E	0.r	1.G	1.g
0C	.	.	.
.	.	2A/	2f/
.	.	1c	1e
=52	=52	=52	=52
0G	0.r	0B-	0.d
1F	.	1A	.
=53	=53	=53	=53
0.G	0.r	0.B-	1d
.	.	.	1d
.	.	.	[1e
=54	=54	=54	=54
0A	0.r	0c	2e/]
.	.	.	2d/
.	.	.	1e
1F	.	1A	2f/
.	.	.	2d/
=55	=55	=55	=55
1G	0.r	1B-	0d
0E	.	0G	.
.	.	.	1c#i
=56	=56	=56	=56
0D	0.r	0A	[0.d
1r	.	1r	.
=57	=57	=57	=57
0G	0.r	1B-	0.d]
.	.	1B-	.
1G	.	1B-	.
=58	=58	=58	=58
1G	0d	[0.B-	0.r
0G	.	.	.
.	1d	.	.
=59	=59	=59	=59
1G	1d	1B-]	0.b-
1.B-	0d	0G	.
2A\	.	.	.
=60	=60	=60	=60
1.F	1.c	0A	1cc
.	.	.	0cc
2E\	2d\	.	.
1C	1e	1G	.
=61	=61	=61	=61
[0.BB-	1f	1.B-	0dd
.	1.d	.	.
.	.	2c\	.
.	.	2d\	1dd
.	2c\	2e\	.
=62	=62	=62	=62
1BB-]	0B-	0f	1dd
0F	.	.	2cc\
.	.	.	1cc
.	1A	1F	.
.	.	.	4b-\
.	.	.	4a/
=63	=63	=63	=63
1E-	1.B-	1G	1g
1D	.	1A	1.f
.	2c\	.	.
1BB-	1d	1B-	.
.	.	.	2e/
=64	=64	=64	=64
1C	1e	2G/	1c
.	.	2A/	.
0BB-	1f	2B-\	1.d
.	.	2c\	.
.	[1d	2d\	.
.	.	2e\	2B-/
=65	=65	=65	=65
1B-	1d]	0f	1B-
1A	1c	.	1c
[1G	1d	1g	1B-
=66	=66	=66	=66
1G]	1B-	1e	0b-
0F	0c	1.f	.
.	.	.	1a
.	.	4e-i\	.
.	.	4d\	.
=67	=67	=67	=67
0.BB-l	0.B-l	0.dl	0.b-l
!!LO:LB:i:g=z
=68||	=68||	=68||	=68||
*M3/1	*M3/1	*M3/1	*M3/1
*met(O)	*met(O)	*met(O)	*met(O)
!!section: Osanna
!!!OMD: Osanna
0.r	0.r	0g	0.b-
.	.	2d\	.
.	.	2e\	.
=69	=69	=69	=69
0.r	0.r	2.f\	1a
.	.	4e\	.
.	.	2f\	1a
.	.	2.c\	.
.	.	.	2g/
.	.	4d\	.
.	.	2e\	[2cc\
=70	=70	=70	=70
0.r	0.r	2f\	2cc\]
.	.	2g\	2b-\
.	.	2f\	2a/
.	.	1g	2g/
.	.	.	1a
.	.	2f#i\	.
=71	=71	=71	=71
0.G	0.B-	0g	1b-
.	.	.	1g
.	.	2r	1dd
.	.	2g\	.
=72	=72	=72	=72
2A\	0.c	2e\	2cc\
1F	.	1a	1cc
2G\	.	2g\	2b-\
1A	.	2e\	2.a/
.	.	2f\	.
.	.	.	4g/
=73	=73	=73	=73
1.G	0.d	2.g\	1b-
.	.	4f\	.
.	.	4d\	2g/
.	.	4e\	.
2F\	.	2.f\	2.a/
4D\	.	.	.
4E\	.	4e\	4g/
2F\	.	4d\	4f/
.	.	4c\	4e/
=74	=74	=74	=74
2BB-/	1r	2d\	2f/
2C/	.	2c\	2e/
2D\	1r	2B-\	2d/
2E-i\	.	2G/	1g
1D	1d	1A	.
.	.	.	2f#i/
=75	=75	=75	=75
2.E-i\	2c\	[0.G	[0.g
.	2B-\	.	.
4D\	.	.	.
2C/	2c\	.	.
2BB-/	2d\	.	.
1C	1e-i	.	.
=76	=76	=76	=76
*^	*	*	*
0.GG\l	0.G/l	0.d	0.G]	0.g]
*v	*v	*	*	*
!!LO:LB:i:g=z
=77||	=77||	=77||	=77||
*M2/1	*M2/1	*M2/1	*M2/1
*met(C|)	*met(C|)	*met(C|)	*met(C|)
!!section: Tu lumen
!!!OMD: Tu lumen
0G	0G	0d	0g
=78	=78	=78	=78
0C	0c	0e	0g
=79	=79	=79	=79
0D	0A	0d	0f
=80	=80	=80	=80
0BB-	0B-	[0f	0d
=81	=81	=81	=81
0F	0A	0f]	0c
=82	=82	=82	=82
0D	0A	0f	0f
=83	=83	=83	=83
0C	0c	0e	0g
=84	=84	=84	=84
0G	0d	0g	0b-
=85	=85	=85	=85
0D	0d	0f	0a
=86	=86	=86	=86
0G	0B-	0d	0g
=87	=87	=87	=87
0F;	0c;	0f;	0a;
=88	=88	=88	=88
0BB-	0d	0f	0b-
=89	=89	=89	=89
0F	0c	0f	0cc
=90	=90	=90	=90
0F	0c	0f	0a
=91	=91	=91	=91
0G	0B-	0d	0b-
=92	=92	=92	=92
0C	0c	0e	0g
=93	=93	=93	=93
0F	0A	0c	0a
=94	=94	=94	=94
0D	0A	0d	0f
=95	=95	=95	=95
0C;	0c;	0e;	0g;
=96	=96	=96	=96
0C	0e	0c	0cc
=97	=97	=97	=97
0C	0e	0c	0cc
=98	=98	=98	=98
0F	0f	0c	0a
=99	=99	=99	=99
0F	0f	0c	0cc
=100	=100	=100	=100
0C	0e	0g	0cc
=101	=101	=101	=101
0G	0d	0g	0b-
=102	=102	=102	=102
0E	0G	0c	0g
=103	=103	=103	=103
0D;	0A;	0d;	0f;
=104	=104	=104	=104
0BB-	0d	[0f	0b-
=105	=105	=105	=105
0BB-	0d	0f]	0b-
=106	=106	=106	=106
0F	0c	0f	0cc
=107	=107	=107	=107
0F	0c	0f	0a
=108	=108	=108	=108
0G	0B-	0d	0b-
=109	=109	=109	=109
0C	0c	0e	0g
=110	=110	=110	=110
0F	0F	0f	0a
=111	=111	=111	=111
0E	0G	0c	0g
=112	=112	=112	=112
0D	0A	0d	0f#i
=113	=113	=113	=113
0Gl	0Gl	0B-l	0gl
==	==	==	==
*-	*-	*-	*-
!!!RDF**kern: l=long note in original notation
!!!RDF**kern: i=editorial accidental
!!!ENC: Will Watson 06/07/2011
!!!END: 2011/06/07/
!!!EED:	Jesse Rodin
!!!EEV:	2011/08/18/
!!attribution-level@Jos: 3 (tricky)
!!!ONB:	Translated from MusicXML and edited on 2011/08/18/ by Craig Sapp
!!muse2ps: C^@{COA}?\n@{SCT}^i2I100v90,90,90,150c120Q16
